icon-themes/breeze_svg/cmd/32/formfiltered.svg

<svg viewBox="0 0 32 32" xmlns="http://www.w3.org/2000/svg"><path d="m6.2929688 3.9960938-1.2929688 1.2929687v2.5390625c.0548.0399 8 10.667969 8 10.667969v5.007812l2 1.5v-1.248047c-.344605-.258832-.678625-.508405-1-.75v-4.841797l-8-10.6679682v-1.7929688l.7070312-.7070312h18.5859378l.707031.7070312v1.7929688l-8 10.6679682v2.835938h1v-2.503906l8-10.667969v-2.5390625l-1.292969-1.2929687zm.7070312 2 5 6.5000002c-.0153.005 0-3.5000002 0-3.5000002l3-3z" fill="#4d4d4d"/><path d="m27.273438 19-7.636719 7.560547-2.910157-2.880859-.726562.720703 2.908203 2.878906.728516.720703 1.089843-1.080078 7.273438-7.199219z" fill="#1d99f3"/></svg>

<svg xmlns="http://www.w3.org/2000/svg" viewBox="0 0 32 32">
 <path 
     style="fill:#4d4d4d" 
     d="M 6.2929688 3.9960938 L 5 5.2890625 L 5 7.828125 C 5.0548 7.868025 13 18.496094 13 18.496094 L 13 23.503906 L 15 25.003906 L 15 23.755859 C 14.655395 23.497027 14.321375 23.247454 14 23.005859 L 14 18.164062 L 6 7.4960938 L 6 5.703125 L 6.7070312 4.9960938 L 25.292969 4.9960938 L 26 5.703125 L 26 7.4960938 L 18 18.164062 L 18 21 L 19 21 L 19 18.496094 L 27 7.828125 L 27 5.2890625 L 25.707031 3.9960938 L 6.2929688 3.9960938 z M 7 5.9960938 L 12 12.496094 C 11.9847 12.501094 12 8.9960938 12 8.9960938 L 15 5.9960938 L 7 5.9960938 z "
     />
 <path 
     style="fill:#1d99f3" 
     d="M 27.273438 19 L 19.636719 26.560547 L 16.726562 23.679688 L 16 24.400391 L 18.908203 27.279297 L 19.636719 28 L 20.726562 26.919922 L 28 19.720703 L 27.273438 19 z "
     />
</svg>
